web/packages/design/src/ResourceIcon/assets/microsoftteams.svg

<svg width="72" height="72" viewBox="0 0 72 72" fill="none" xmlns="http://www.w3.org/2000/svg">
<path d="M50.2213 27.147H68.8191C70.5761 27.147 72.0005 28.5731 72.0005 30.3323V47.2931C72.0005 53.7586 66.7656 58.9999 60.308 58.9999H60.2527C53.7952 59.0008 48.5595 53.7603 48.5586 47.2948C48.5586 47.2942 48.5586 47.2937 48.5586 47.2931V28.8117C48.5586 27.8923 49.303 27.147 50.2213 27.147Z" fill="#5059C9"/>
<path d="M62.7907 23.7943C66.9521 23.7943 70.3256 20.4167 70.3256 16.2502C70.3256 12.0837 66.9521 8.70605 62.7907 8.70605C58.6293 8.70605 55.2559 12.0837 55.2559 16.2502C55.2559 20.4167 58.6293 23.7943 62.7907 23.7943Z" fill="#5059C9"/>
<path d="M39.3486 23.7941C45.3595 23.7941 50.2323 18.9154 50.2323 12.8971C50.2323 6.87878 45.3595 2 39.3486 2C33.3377 2 28.4648 6.87878 28.4648 12.8971C28.4648 18.9154 33.3377 23.7941 39.3486 23.7941Z" fill="#7B83EB"/>
<path d="M53.8611 27.147H23.1623C21.4262 27.19 20.0528 28.6325 20.0931 30.3708V49.7156C19.8507 60.147 28.0934 68.8035 38.5117 69.0588C48.9301 68.8035 57.1728 60.147 56.9303 49.7156V30.3708C56.9706 28.6325 55.5972 27.19 53.8611 27.147Z" fill="#7B83EB"/>
<path opacity="0.1" d="M40.1857 27.147V54.2555C40.1774 55.4986 39.425 56.6154 38.2769 57.0887C37.9113 57.2436 37.5184 57.3234 37.1215 57.3234H21.5662C21.3485 56.7702 21.1476 56.217 20.9801 55.647C20.394 53.7233 20.0949 51.7235 20.0927 49.7123V30.3658C20.0524 28.6303 21.4235 27.19 23.1568 27.147H40.1857Z" fill="black"/>
<path opacity="0.2" d="M38.5113 27.147V55.932C38.5112 56.3294 38.4315 56.7227 38.2769 57.0887C37.8041 58.2383 36.6887 58.9916 35.4471 58.9999H22.3532C22.0685 58.4467 21.8006 57.8934 21.5662 57.3234C21.3317 56.7535 21.1476 56.217 20.9801 55.647C20.394 53.7233 20.0949 51.7235 20.0927 49.7123V30.3658C20.0524 28.6303 21.4235 27.19 23.1568 27.147H38.5113Z" fill="black"/>
<path opacity="0.2" d="M38.5113 27.147V52.579C38.4985 54.2681 37.1341 55.6342 35.4471 55.647H20.9801C20.394 53.7233 20.0949 51.7235 20.0927 49.7123V30.3658C20.0524 28.6303 21.4235 27.19 23.1568 27.147H38.5113Z" fill="black"/>
<path opacity="0.2" d="M36.8368 27.147V52.579C36.8241 54.2681 35.4597 55.6342 33.7727 55.647H20.9801C20.394 53.7233 20.0949 51.7235 20.0927 49.7123V30.3658C20.0524 28.6303 21.4235 27.19 23.1568 27.147H36.8368Z" fill="black"/>
<path opacity="0.1" d="M40.1862 18.48V23.7609C39.9015 23.7777 39.6336 23.7944 39.3489 23.7944C39.0643 23.7944 38.7964 23.7777 38.5117 23.7609C37.9465 23.7234 37.386 23.6336 36.8373 23.4927C33.4466 22.6887 30.6453 20.3078 29.3024 17.0886C29.0714 16.5479 28.892 15.9866 28.7666 15.4121H37.1219C38.8116 15.4185 40.1797 16.7883 40.1862 18.48Z" fill="black"/>
<path opacity="0.2" d="M38.512 20.1563V23.7607C37.9468 23.7232 37.3863 23.6334 36.8376 23.4925C33.4469 22.6885 30.6456 20.3077 29.3027 17.0884H35.4478C37.1375 17.0948 38.5056 18.4646 38.512 20.1563Z" fill="black"/>
<path opacity="0.2" d="M38.512 20.1563V23.7607C37.9468 23.7232 37.3863 23.6334 36.8376 23.4925C33.4469 22.6885 30.6456 20.3077 29.3027 17.0884H35.4478C37.1375 17.0948 38.5056 18.4646 38.512 20.1563Z" fill="black"/>
<path opacity="0.2" d="M36.8376 20.1558V23.492C33.4469 22.688 30.6456 20.3072 29.3027 17.0879H33.7734C35.4631 17.0943 36.8312 18.4641 36.8376 20.1558Z" fill="black"/>
<path d="M3.06919 17.0879H33.768C35.4631 17.0879 36.8372 18.4637 36.8372 20.1608V50.8973C36.8372 52.5944 35.463 53.9702 33.768 53.9702H3.06919C1.37411 53.9702 0 52.5944 0 50.8973V20.1608C0 18.4637 1.37414 17.0879 3.06919 17.0879Z" fill="url(#paint0_linear_6211_26694)"/>
<path d="M26.4966 28.7867H20.3598V45.5178H16.4501V28.7867H10.3418V25.541H26.4966V28.7867Z" fill="white"/>
<defs>
<linearGradient id="paint0_linear_6211_26694" x1="6.39937" y1="14.6867" x2="30.482" y2="56.3459" gradientUnits="userSpaceOnUse">
<stop stop-color="#5A62C3"/>
<stop offset="0.5" stop-color="#4D55BD"/>
<stop offset="1" stop-color="#3940AB"/>
</linearGradient>
</defs>
</svg>

<svg xmlns="http://www.w3.org/2000/svg" width="72" height="72" fill="none" viewBox="0 0 72 72"><path fill="#5059c9" d="M50.221 27.147H68.82a3.183 3.183 0 0 1 3.182 3.185v16.961C72 53.76 66.766 59 60.308 59h-.055c-6.458 0-11.693-5.24-11.694-11.705V28.812c0-.92.744-1.665 1.662-1.665m12.569-3.353c4.162 0 7.536-3.377 7.536-7.544s-3.374-7.544-7.535-7.544c-4.162 0-7.535 3.378-7.535 7.544 0 4.167 3.373 7.544 7.535 7.544"/><path fill="#7b83eb" d="M39.349 23.794c6.01 0 10.883-4.879 10.883-10.897S45.36 2 39.35 2c-6.011 0-10.884 4.879-10.884 10.897s4.873 10.897 10.884 10.897m14.511 3.353H23.162a3.15 3.15 0 0 0-3.069 3.224v19.345c-.242 10.431 8 19.088 18.419 19.343 10.418-.255 18.66-8.912 18.418-19.343V30.37a3.15 3.15 0 0 0-3.069-3.224"/><path fill="#000" d="M40.186 27.147v27.109a3.09 3.09 0 0 1-1.91 2.833 3 3 0 0 1-1.155.234H21.566a20 20 0 0 1-.586-1.676 20.4 20.4 0 0 1-.887-5.935V30.366a3.145 3.145 0 0 1 3.064-3.219z" opacity=".1"/><path fill="#000" d="M38.511 27.147v28.785c0 .397-.08.79-.234 1.157a3.08 3.08 0 0 1-2.83 1.91H22.353a22 22 0 0 1-.787-1.676 17 17 0 0 1-.586-1.676 20.4 20.4 0 0 1-.887-5.935V30.366a3.145 3.145 0 0 1 3.064-3.219z" opacity=".2"/><path fill="#000" d="M38.511 27.147v25.432a3.09 3.09 0 0 1-3.064 3.068H20.98a20.4 20.4 0 0 1-.887-5.935V30.366a3.145 3.145 0 0 1 3.064-3.219z" opacity=".2"/><path fill="#000" d="M36.837 27.147v25.432a3.09 3.09 0 0 1-3.064 3.068H20.98a20.4 20.4 0 0 1-.887-5.935V30.366a3.145 3.145 0 0 1 3.064-3.219z" opacity=".2"/><path fill="#000" d="M40.186 18.48v5.28c-.285.018-.552.034-.837.034s-.553-.016-.837-.033a9 9 0 0 1-1.675-.268 10.89 10.89 0 0 1-7.535-6.404 9.3 9.3 0 0 1-.535-1.677h8.355a3.08 3.08 0 0 1 3.064 3.068" opacity=".1"/><path fill="#000" d="M38.512 20.156v3.605a9 9 0 0 1-1.674-.268 10.89 10.89 0 0 1-7.535-6.405h6.145a3.08 3.08 0 0 1 3.064 3.068" opacity=".2"/><path fill="#000" d="M38.512 20.156v3.605a9 9 0 0 1-1.674-.268 10.89 10.89 0 0 1-7.535-6.405h6.145a3.08 3.08 0 0 1 3.064 3.068" opacity=".2"/><path fill="#000" d="M36.838 20.156v3.336a10.89 10.89 0 0 1-7.535-6.404h4.47a3.08 3.08 0 0 1 3.065 3.068" opacity=".2"/><path fill="url(#a)" d="M3.07 17.088h30.698a3.07 3.07 0 0 1 3.07 3.073v30.736a3.07 3.07 0 0 1-3.07 3.073H3.069A3.07 3.07 0 0 1 0 50.897V20.161a3.07 3.07 0 0 1 3.07-3.073"/><path fill="#fff" d="M26.497 28.787H20.36v16.73h-3.91v-16.73h-6.108V25.54h16.155z"/><defs><linearGradient id="a" x1="6.399" x2="30.482" y1="14.687" y2="56.346" gradientUnits="userSpaceOnUse"><stop stop-color="#5a62c3"/><stop offset=".5" stop-color="#4d55bd"/><stop offset="1" stop-color="#3940ab"/></linearGradient></defs></svg>
